X: 749
T: Old Melinda
B: jims roots
M:2/4
L:1/8
R: Breakdown
Q: 1/4=100
K:C
V:1 
G,B, |: "C"C2EF EDCD | E2G2 A2c2 | {_E}[G,E]EEG EDCD | "G"E2DC "C"A,G,A,C |
        "C"C2EF EDCD | E2G2 ABcd | e2dc ABcA | "G"GEDC "C"A,CCG, :|
"C"eggg gag2 | egab a2g2 | {d}[ee][ee][ee]e eg-g2 | "G"[ee][ee][ed][ed] "C"[ec][ec][ec][ed] |
"C"eggg ggg2 | egab a2g2 | {d}[ee][ee][ee]e eg-g2 | "G"[ee][ee][ee][ed] "C"c2c2 ||
"C"{d}[ee][ee][ee][ee] [ee][ee][ed][ee] | [ee][ee][ee][ee] [ed][ec][ed][ec] | [ee][ee][ee][ee] [ee]dcA | "G"A2G2 "C"E2G2 |
"C"{d}[ee][ee][ee][ee] [ee][ee][ed][ee] | [ee][ee][ee][ee] [d2e][c2e] | e2dc ABcA | "G"GEDC "C"A,C3||
% abcbook-tune_id 6298c279cc573382f1714f0e


% abcbook-boost 0
% abcbook-tablature 
% abcbook-transpose 
% abcbook-lastupdated 1654178425987
% abcbook-soundfonts 
% abcbook-repeats 1


